!!!OTL-incipit: SO WUENSCH ICH IHR EIN GUTE NACHT
!!!ARE: Europa, Mitteleuropa, Deutschland
!!!SCT: Z0291
!!!TXL: @@DE
!!!YEM: Copyright 1995, estate of Helmut Schaffrath.
**kern	**text
*ICvox	*
*M2/4	*
*k[b-]	*
*F:	*
!LO:TX:a:t=Altes Lied.	!
{8cc	So
=1	=1
8a	wünſch
8g	ich
8f	ihr
8g	ein'
=2	=2
4c	gu-
4e	-te
=3	=3
4.f}	Nacht,
{8f	bei
=4	=4
8dd	der
8cc	ich
8b-/	war
8a	al-
=5	=5
4g	-lei-
8g}	-ne,
{8cc	Ein
=6	=6
8a	freund-
8g	-lich
8f	Wort
8g	ſie
=7	=7
4c	ʒu
4e	mir
=8	=8
4.f}	ſprach,
{8f	da
=9	=9
8dd	wir
8cc	uns
8b-/	ſoll-
8a	-ten
=10	=10
4g	ſchei-
8g}	-den.
{8cc	Jch
=11	=11
4ff	ſcheid
4ff	mit
=12	=12
4.ee	Leid,
8ee	Gott
=13	=13
4dd	weiß
4dd	die
=14	=14
4cc}	Ʒeit,
{8b-	Wieder-
16aL	.
16gJ	.
=15	=15
8a	-kom-
16b-L	-men
16aJ	.
8g	bringt
8g	uns
=16	=16
4.f}	Freud.
{8cc	Jch
=17	=17
4ff	ſcheid
4ff	mit
=18	=18
4.ee	Leid,
8ee	Gott
=19	=19
4dd	weiß
4dd	die
=20	=20
4cc}	Ʒeit,
{8b-	Wieder-
16aL	.
16gJ	.
=21	=21
8a	-kom-
16b-L	-men
16aJ	.
8g	bringt
8g	uns
=22	=22
4.f}	Freud.
==	==
!!!AGN: Lyrisches Lied, Romanze
!!!ONB: ESAC (Essen Associative Code) Database: ZUCCAL
!!!AMT: simple duple
!!!AIN: vox
!!!EED: Helmut Schaffrath
!!!EEV: 1.0
!!!GTL: IV. Lyrische Lieder.
!!!URL-scan: https://www.digitale-sammlungen.de/de/view/bsb11160571?page=525
!!!ENC: Anna Maria Matuszewska
!!!EEV: 2025/01/31
*-	*-
